src/pos-icons/chair-school.svg

<svg height="24" viewBox="0 0 24 24" width="24" xmlns="http://www.w3.org/2000/svg"><path d="m22 5v2h-5l-3.47 5h2.47v2h-1.54l3.71 8h-2.2l-.93-2h-8.66l-1.03 2h-2.25l4.13-8h-.23c-.45 0-.83-.3-.96-.7l-3.17-9.46.95-.34c.52-.16 1.09.13 1.26.65l2.64 7.85h4.38l3.47-5h-3.57v-2zm-12.5 9-2.08 4h6.69l-1.85-4z"/></svg>

<?xml version="1.0" encoding="UTF-8"?><!DOCTYPE svg PUBLIC "-//W3C//DTD SVG 1.1//EN" "http://www.w3.org/Graphics/SVG/1.1/DTD/svg11.dtd"><svg xmlns="http://www.w3.org/2000/svg" xmlns:xlink="http://www.w3.org/1999/xlink" version="1.1" id="mdi-chair-school" width="24" height="24" viewBox="0 0 24 24"><path d="M22,5V7H17L13.53,12H16V14H14.46L18.17,22H15.97L15.04,20H6.38L5.35,22H3.1L7.23,14H7C6.55,14 6.17,13.7 6.04,13.3L2.87,3.84L3.82,3.5C4.34,3.34 4.91,3.63 5.08,4.15L7.72,12H12.1L15.57,7H12V5H22M9.5,14L7.42,18H14.11L12.26,14H9.5Z" /></svg>
